app/images/footer.svg

<svg width="800" height="800" viewBox="0 0 400 400" fill="none" xmlns="http://www.w3.org/2000/svg"><path d="M245.2 134.289c48.92-60.303-26.175-52.072-37.074-57.526-3.83-1.914-7.598-20.393-16.121-16.126-13.125 6.567-12.01 40.746-13.434 52.148-.773 6.206-9.438 15.092-12.286 21.504-4.546 10.232-9.541 22.403-17.892 35.113-8.35 12.711-25.801 22.565-34.536 32.279-37.175 41.321-21.237 89.898 19.578 121.311 41.281 31.772 213.696 19.914 164.964-53.223" stroke="#000" stroke-opacity=".9" stroke-width="16" stroke-linecap="round" stroke-linejoin="round"/><path d="M225.903 162.283c12.115 44.344-5.276 90.653-5.276 134.074 0 4.997 9.916.175 14.774 1.068m-72.734-88.546c9.752 1.436 18.652 8.595 25.555 15.287 34.36 33.315-9.534 55.704-11.965 67.481-.549 2.664 10.778 4.498 13.053 4.742m22.226-233.395c6.625-6.215 7.889 4.663 9.091 10.644" stroke="#000" stroke-opacity=".9" stroke-width="16" stroke-linecap="round" stroke-linejoin="round"/></svg>

<?xml version="1.0" encoding="utf-8"?><!-- Uploaded to: SVG Repo, www.svgrepo.com, Generator: SVG Repo Mixer Tools -->
<svg width="800px" height="800px" viewBox="0 0 400 400" fill="none" xmlns="http://www.w3.org/2000/svg">
<path d="M245.2 134.289C294.12 73.9855 219.025 82.2174 208.126 76.763C204.296 74.849 200.528 56.3705 192.005 60.6375C178.88 67.2036 179.995 101.383 178.571 112.785C177.798 118.991 169.133 127.877 166.285 134.289C161.739 144.521 156.744 156.692 148.393 169.402C140.043 182.113 122.592 191.967 113.857 201.681C76.682 243.002 92.6204 291.579 133.435 322.992C174.716 354.764 347.131 342.906 298.399 269.769" stroke="#000000" stroke-opacity="0.9" stroke-width="16" stroke-linecap="round" stroke-linejoin="round"/>
<path d="M225.903 162.283C238.018 206.627 220.627 252.936 220.627 296.357C220.627 301.354 230.543 296.532 235.401 297.425" stroke="#000000" stroke-opacity="0.9" stroke-width="16" stroke-linecap="round" stroke-linejoin="round"/>
<path d="M162.667 208.879C172.419 210.315 181.319 217.474 188.222 224.166C222.582 257.481 178.688 279.87 176.257 291.647C175.708 294.311 187.035 296.145 189.31 296.389" stroke="#000000" stroke-opacity="0.9" stroke-width="16" stroke-linecap="round" stroke-linejoin="round"/>
<path d="M211.536 62.994C218.161 56.7795 219.425 67.6568 220.627 73.6378" stroke="#000000" stroke-opacity="0.9" stroke-width="16" stroke-linecap="round" stroke-linejoin="round"/>
</svg>
